icons/svgs/eye-solid.svg

<svg width="24" height="24" viewBox="0 0 24 24" fill="none" xmlns="http://www.w3.org/2000/svg">
<path d="M12.5 3.25C15.625 3.25 18.1641 4.69531 20 6.41406C21.8359 8.09375 23.0469 10.125 23.6328 11.5312C23.75 11.8438 23.75 12.1953 23.6328 12.5078C23.0469 13.875 21.8359 15.9062 20 17.625C18.1641 19.3438 15.625 20.75 12.5 20.75C9.33594 20.75 6.79688 19.3438 4.96094 17.625C3.125 15.9062 1.91406 13.875 1.32812 12.5078C1.21094 12.1953 1.21094 11.8438 1.32812 11.5312C1.91406 10.125 3.125 8.09375 4.96094 6.41406C6.79688 4.69531 9.33594 3.25 12.5 3.25ZM6.875 12C6.875 14.0312 7.92969 15.8672 9.6875 16.8828C11.4062 17.8984 13.5547 17.8984 15.3125 16.8828C17.0312 15.8672 18.125 14.0312 18.125 12C18.125 10.0078 17.0312 8.17188 15.3125 7.15625C13.5547 6.14062 11.4062 6.14062 9.6875 7.15625C7.92969 8.17188 6.875 10.0078 6.875 12ZM12.5 9.5C12.5 9.22656 12.4219 8.99219 12.3438 8.71875C12.2656 8.52344 12.4219 8.25 12.6562 8.25C14.2188 8.32812 15.6641 9.42188 16.0938 11.0625C16.6406 13.0547 15.4688 15.0859 13.4375 15.6328C11.4453 16.1797 9.375 14.9688 8.86719 12.9766C8.78906 12.7031 8.75 12.4297 8.75 12.1953C8.71094 11.9609 8.98438 11.8047 9.17969 11.8828C9.45312 11.9609 9.6875 12 10 12C11.3672 12 12.5 10.9062 12.5 9.5Z" fill="black"/>
</svg>

<svg xmlns="http://www.w3.org/2000/svg" width="24" height="24" fill="currentColor" class="icon-eye-solid" viewBox="0 0 24 24">
  <mask id="a" width="23" height="18" x="1" y="3" maskUnits="userSpaceOnUse" style="mask-type:alpha">
    <path d="M12.5 3.25c3.125 0 5.664 1.445 7.5 3.164 1.836 1.68 3.047 3.711 3.633 5.117a1.4 1.4 0 0 1 0 .977c-.586 1.367-1.797 3.398-3.633 5.117s-4.375 3.125-7.5 3.125c-3.164 0-5.703-1.406-7.54-3.125-1.835-1.719-3.046-3.75-3.632-5.117a1.4 1.4 0 0 1 0-.977c.586-1.406 1.797-3.437 3.633-5.117C6.797 4.695 9.336 3.25 12.5 3.25M6.875 12a5.6 5.6 0 0 0 2.813 4.883c1.718 1.015 3.867 1.015 5.624 0 1.72-1.016 2.813-2.852 2.813-4.883 0-1.992-1.094-3.828-2.812-4.844-1.758-1.015-3.907-1.015-5.626 0A5.58 5.58 0 0 0 6.876 12M12.5 9.5c0-.273-.078-.508-.156-.781-.078-.196.078-.469.312-.469a3.77 3.77 0 0 1 3.438 2.813c.547 1.992-.625 4.023-2.657 4.57a3.72 3.72 0 0 1-4.57-2.656 3 3 0 0 1-.117-.782c-.04-.234.234-.39.43-.312.273.078.508.117.82.117 1.367 0 2.5-1.094 2.5-2.5"/>
  </mask>
  <g mask="url(#a)">
    <path d="M0 0h24v24H0z"/>
  </g>
</svg>
